X:1
T:Op 299 / 19
T:Op 299 / 22 (excerpts)
T:Czerny
C:Czerny
%%score { 1 | ( 2 3 ) }
L:1/8
Q:1/4=192
M:4/4
K:G
V:1 treble nm="Piano" snm="Pno."
V:2 bass 
V:3 bass 
V:1
 !4!G/!3!G/!2!G/!1!G/ !4!A/!3!A/!2!A/!1!A/ B/B/B/B/ c/c/c/c/ | %1
 d/d/d/d/ e/e/e/e/ f/f/f/f/ g/g/g/g/ || %2
 g/g/g/g/ !2!d/!1!d/d'/!1!d/ !2!c/!1!c/c'/!1!c/ !2!A/!1!A/a/!1!A/ | %3
 B/B/b/B/ G/G/g/G/ F/F/f/F/ A/A/a/A/ | G/G/g/G/ d/d/d'/d/ c/c/c'/c/ A/A/a/A/ | %5
 B/B/b/B/ G/G/g/G/ A/A/a/A/ F/F/f/F/ | G/G/g/G/ G/G/g/G/ B/B/b/B/ d/d/d'/d/ | g z [gbd'g'] z z4 :| %8
V:2
 [B,D] z [F,D] z [G,D] z [A,D] z | [B,D] z [CD] z [A,D] z [B,D] z || B, z[K:treble] B2 A2 F2 | %3
 G2 D4 D2 |[K:bass] D2 B,2 A,2 F,2 | G,2 [D,G,B,]2 [D,F,C]2 [D,A,C]2 | %6
 [G,B,] z [G,B,] z [D,G,] z [B,,D,] z | G,,/B,,/D,/G,/ B,/D/G/D/ B,/G,/D,/B,,/ G,, z :| %8
V:3
 x8 | x8 || G, z[K:treble] D6- | D2 B,2 A,2 C2 |[K:bass] B,2 D,6- | D,2 x2 x4 | x8 | x8 :| %8

